X: 3
T: Jackets Green
C: Traditional
O: Mick Clancy
A: North Leitrim
Q: 120
M: 4/4
L: 1/8
K: Gmaj
|: ef |\
g3 f e2 dB | A2 G2 E2 GA | B2 BG A2 A2 | G6 B2 |
d3 B d2 ef | g3 f e2 d2 | e>f ed BA Bd | e6 B2 |
d3 B d2 ef | g3 f e2 d2 | e>f ed BA Bd | e6 ef |
ga gf e2 dB | A>B AG E2 GA | B2 BG A2 A2 | G6 :|
